X: 879
T: Alex Muir's
R: reel
M: 4/4
K: Gmajor
|:D2 D2 d2 BG|F2 F2 d3 d|cccc B2 A2|d2 B2 BAGE|
D2 D2 d2 BG|F2 F2 d3 d|eeee d2 F2|1 A2 G2 G2 GF:|2 A2 G2 G2 D2||
|:G4 D3 G|BBBB G2 B2|dddd B2 G2|G2 F2 F3 F|
cccc B2 c2|AAAA ^G2 A2|eeee d2 F2|1 A2 G2 G2 D2:|2 A2 G2 G4||

